!! 00000] TT[WS
!!!OTL: Nao shengchan
!!!ARE: Asia, China, Shanxi Baode
!! Ethnic Group: Han
!! WII, 244
!!!SCT: J0766
!!!YEM: Copyright 1995, estate of Helmut Schaffrath.
**kern
*ICvox
*Ivox
*M2/4
*k[b-]
*F:
{8ff
8dd
4cc
=1
8cc
8f
4g
=2
8ff
8dd
8cc
8b-
=3
8cc
8f
4g}
=4
{8cc
8cc
8ff
8dd
=5
8cc
8ff
8cc
8b-
=6
8f
4b-
8g
=7
8f
8d
4c}
=8
{8ff
8dd
8cc
8ff
=9
8cc
8b-
4g
=10
8cc
8b-
8g
8d
=11
2c}
==
!!!AGN: Xiaodiao. Laodong, Xinminge
!!!ONB: ESAC (Essen Associative Code) Database: CHINA
!!!AMT: simple duple
!!!AIN: vox
!!!EED: Helmut Schaffrath
!!!EEV: 1.0
*-
